svgs/sharp-solid/watch-calculator.svg

<svg xmlns="http://www.w3.org/2000/svg" viewBox="0 0 384 512"><!--! Font Awesome Pro 6.6.0 by @fontawesome - https://fontawesome.com License - https://fontawesome.com/license (Commercial License) Copyright 2024 Fonticons, Inc. --><path d="M64 0L320 0l0 48L64 48 64 0zm0 512l0-48 256 0 0 48L64 512zM0 80l384 0 0 352L0 432 0 80zm64 64l0 64 256 0 0-64L64 144zm48 104l-48 0 0 48 48 0 0-48zm56 0l0 48 48 0 0-48-48 0zm152 0l-48 0 0 48 48 0 0-48zM64 336l0 48 48 0 0-48-48 0zm152 0l-48 0 0 48 48 0 0-48zm56 0l0 48 48 0 0-48-48 0z"/></svg>

<svg xmlns="http://www.w3.org/2000/svg" viewBox="0 0 384 512"><!--! Font Awesome Pro 6.4.2 by @fontawesome - https://fontawesome.com License - https://fontawesome.com/license (Commercial License) Copyright 2023 Fonticons, Inc. --><path d="M64 0H320V48H64V0zm0 512V464H320v48H64zM0 80H384V432H0V80zm64 64v64H320V144H64zm48 104H64v48h48V248zm56 0v48h48V248H168zm152 0H272v48h48V248zM64 336v48h48V336H64zm152 0H168v48h48V336zm56 0v48h48V336H272z"/></svg>
